symbols/web/font_download_off/materialsymbolsrounded/font_download_off_wght200grad200_24px.svg

<svg xmlns="http://www.w3.org/2000/svg" height="24" width="24"><path d="m20.65 22.575-.825-.825q-.075.025-.15.038-.075.012-.175.012H4.525q-.975 0-1.637-.662-.663-.663-.663-1.638V4.525q0-.1.012-.175.013-.075.038-.15L1.9 3.8q-.25-.225-.262-.55-.013-.325.237-.6.275-.275.6-.275.325 0 .575.275l18.775 18.775q.25.225.25.55 0 .325-.25.6-.25.25-.575.25-.325 0-.6-.25ZM4.5 20.15h13.725L3.875 5.8v13.725q0 .25.187.437.188.188.438.188Zm17.325-1.55-1.65-1.65V4.475q0-.25-.187-.438-.188-.187-.438-.187H7.075L5.425 2.2h14.1q.975 0 1.638.662.662.663.662 1.638Zm-6.775-6.775-2.725-2.75-.275-.75-.125.375-1.3-1.3.325-.95q.1-.2.375-.425.275-.225.65-.225t.688.225q.312.225.437.55Zm-4 1.15Zm2.55-2.55Zm2.525 7.55q-.275 0-.487-.138-.213-.137-.263-.412l-1.275-3.75 2.325 2.35.375 1.075q.025.375-.15.625t-.525.25Zm-6.625-3.1-.875 2.575q-.05.1-.1.213-.05.112-.162.174-.113.063-.238.101-.125.037-.25.037-.45 0-.662-.35-.213-.35-.063-.75l2.7-7.45 1.175 1.175-.975 2.775h3.725l1.5 1.5Z"/></svg>

<svg xmlns="http://www.w3.org/2000/svg" height="24" width="24"><path d="M20.65 22.575 19.825 21.75Q19.75 21.775 19.675 21.788Q19.6 21.8 19.5 21.8H4.525Q3.55 21.8 2.888 21.138Q2.225 20.475 2.225 19.5V4.525Q2.225 4.425 2.237 4.35Q2.25 4.275 2.275 4.2L1.9 3.8Q1.65 3.575 1.638 3.25Q1.625 2.925 1.875 2.65Q2.15 2.375 2.475 2.375Q2.8 2.375 3.05 2.65L21.825 21.425Q22.075 21.65 22.075 21.975Q22.075 22.3 21.825 22.575Q21.575 22.825 21.25 22.825Q20.925 22.825 20.65 22.575ZM4.5 20.15H18.225L15.8 17.725Q15.8 17.875 15.725 17.925Q15.65 17.975 15.525 17.975Q15.45 17.975 15.375 17.913Q15.3 17.85 15.275 17.775L14.95 16.85L12.95 14.875H9.5L8.6 17.45Q8.525 17.675 8.312 17.825Q8.1 17.975 7.875 17.975Q7.425 17.975 7.188 17.663Q6.95 17.35 7.125 16.925L9.225 11.15L3.875 5.8V19.525Q3.875 19.775 4.062 19.962Q4.25 20.15 4.5 20.15ZM21.825 18.6 20.175 16.95V4.475Q20.175 4.225 19.988 4.037Q19.8 3.85 19.55 3.85H7.075L5.425 2.2H19.525Q20.5 2.2 21.163 2.862Q21.825 3.525 21.825 4.5ZM10.05 13.325H12.3L10.625 11.65ZM15.05 11.825 12.325 9.075 12.05 8.325 11.925 8.7 10.625 7.4 10.95 6.45Q11.05 6.25 11.325 6.025Q11.6 5.8 11.975 5.8Q12.35 5.8 12.663 6.025Q12.975 6.25 13.1 6.575ZM11.05 12.975Q11.05 12.975 11.05 12.975Q11.05 12.975 11.05 12.975ZM13.6 10.425Q13.6 10.425 13.6 10.425Q13.6 10.425 13.6 10.425Z"/></svg>
